X: 305776
M: 6/8
L: 1/8
K: F
c |\
a2g a2g | f2f fed | cdc cde | fga gc'b |\
a2g a2g | f2f fed | cdc cde | g3 f2 H|]
c |\
g2g gfe | a2a afd | =B2B Bag | f3 e2c |\
g2g gfe | a2a abc' | gag fed | [ec]cd ef"^D.C."g |]
a3 ^c3 | d3 def | efe efd | ^cd=B Afg |\
a3 ^c3 | d3 def | =cdc cBG | F3 "^D.C."F2 |]


